X:17
T:Le flambeau d'amour
R:Chanson
O:France
B:Le livre des Chansons (Henri Davenson) n°17
Z:<anamnese@caramail.com> -- http://anamnese.fr.st
M:6/8
L:1/8
Q:1/4=100
K:Bb
F3 B2 A | G2 A B2 c | B3-B z2 | F3 B2 A | G2 F E2 G | G3 F3-|F z F B2 c |
d3-d2 c | B3 d2 | c6-|c z F G2 G | F3 B-c | d3-d2 c | B6 ||
W:C'est une fille de quinze ans,
W:Ou quelque chose davantage ;
W:Son père l'as mise en la tour
W:De peur que l'on lui fît l'amour.

